svg/UnitedNations-Flags/flag-cn.svg

<?xml version="1.0" encoding="UTF-8" standalone="no"?>
<svg height="256" id="svg2" inkscape:output_extension="org.inkscape.output.svg.inkscape" inkscape:version="0.46" sodipodi:docname="Flag_of_the_People's_Republic_of_China.svg" sodipodi:version="0.32" version="1.0" width="256" xmlns="http://www.w3.org/2000/svg" xmlns:cc="http://creativecommons.org/ns#" xmlns:dc="http://purl.org/dc/elements/1.1/" xmlns:inkscape="http://www.inkscape.org/namespaces/inkscape" xmlns:rdf="http://www.w3.org/1999/02/22-rdf-syntax-ns#" xmlns:sodipodi="http://sodipodi.sourceforge.net/DTD/sodipodi-0.dtd" xmlns:svg="http://www.w3.org/2000/svg" xmlns:xlink="http://www.w3.org/1999/xlink">
  <metadata>
    <rdf:RDF xmlns:cc="http://web.resource.org/cc/" xmlns:dc="http://purl.org/dc/elements/1.1/" xmlns:rdf="http://www.w3.org/1999/02/22-rdf-syntax-ns#">
      <cc:Work rdf:about="">
        <dc:title></dc:title>
        <dc:description></dc:description>
        <dc:subject>
          <rdf:Bag>
            <rdf:li>unsorted</rdf:li>
          </rdf:Bag>
        </dc:subject>
        <dc:publisher>
          <cc:Agent rdf:about="http://www.openclipart.org/">
            <dc:title>Open Clip Art Library, Source: Wikimedia Commons, Source: Wikimedia Commons, Source: Wikimedia Commons, Source: Wikimedia Commons</dc:title>
          </cc:Agent>
        </dc:publisher>
        <dc:creator>
          <cc:Agent>
            <dc:title></dc:title>
          </cc:Agent>
        </dc:creator>
        <dc:rights>
          <cc:Agent>
            <dc:title></dc:title>
          </cc:Agent>
        </dc:rights>
        <dc:date></dc:date>
        <dc:format>image/svg+xml</dc:format>
        <dc:type rdf:resource="http://purl.org/dc/dcmitype/StillImage"/>
        <cc:license rdf:resource="http://en.wikipedia.org/wiki/Public_domain"/>
        <dc:language>en</dc:language>
      </cc:Work>
    </rdf:RDF>
  </metadata>
  <defs id="defs16">
    <inkscape:perspective id="perspective20" inkscape:persp3d-origin="1500 : 666.66667 : 1" inkscape:vp_x="0 : 1000 : 1" inkscape:vp_y="0 : 1000 : 0" inkscape:vp_z="3000 : 1000 : 1" sodipodi:type="inkscape:persp3d"/>
  </defs>
  <sodipodi:namedview bordercolor="#666666" borderopacity="1.0" gridtolerance="10.0" guidetolerance="10.0" id="base" inkscape:current-layer="svg2" inkscape:cx="1500" inkscape:cy="1000" inkscape:pageopacity="0.0" inkscape:pageshadow="2" inkscape:window-height="674" inkscape:window-width="836" inkscape:window-x="34" inkscape:window-y="102" inkscape:zoom="0.18633333" objecttolerance="10.0" pagecolor="#ffffff" showgrid="false"/>
  <rect height="170.66701" id="rect4" style="fill:#de2910" width="256" x="0" y="42.333"/>
  <path d="M 27.690213,105.63795 L 33.364238,87.992514 L 18.453333,77.053393 L 36.920253,77.018993 L 42.673958,59.399659 L 48.413116,77.023793 L 66.88,77.073593 L 51.960073,88.000314 L 57.619538,105.65045 L 42.659359,94.779327 L 27.690213,105.63795 L 27.690213,105.63795 z" id="star" style="fill:#ffde00"/>
  <use height="2000" id="use7" transform="matrix(0.3128368,0.1151017,-0.1151013,0.3128368,81.815407,87.649317)" width="3000" x="0" xlink:href="#star" y="0"/>
  <use height="2000" id="use9" transform="matrix(0.3330938,-1.2796198e-2,1.2796148e-2,0.3330938,87.130954,74.29826)" width="3000" x="0" xlink:href="#star" y="0"/>
  <use height="2000" id="use11" transform="matrix(0.2988346,-0.1476936,0.147693,0.2988346,77.058704,57.361021)" width="3000" x="0" xlink:href="#star" y="0"/>
  <use height="2000" id="use13" transform="matrix(0.3070677,0.1297109,-0.1297105,0.3070677,83.21088,27.749418)" width="3000" x="0" xlink:href="#star" y="0"/>
</svg>

<svg xmlns="http://www.w3.org/2000/svg" xmlns:xlink="http://www.w3.org/1999/xlink" viewBox="0 0 256 256"><path fill="#de2910" d="m0 42.33h256v170.67h-256z"/><path d="m27.69 105.64l5.674-17.645-14.911-10.939 18.467-.034 5.754-17.619 5.739 17.624 18.467.05-14.92 10.927 5.659 17.65-14.96-10.871-14.969 10.859" id="0" fill="#ffde00"/><use height="2000" transform="matrix(.31284.1151-.1151.31284 81.82 87.65)" width="3000" xlink:href="#0"/><use height="2000" transform="matrix(.33309-.0128.0128.33309 87.13 74.3)" width="3000" xlink:href="#0"/><use height="2000" transform="matrix(.29883-.14769.14769.29883 77.06 57.36)" width="3000" xlink:href="#0"/><use height="2000" transform="matrix(.30707.12971-.12971.30707 83.21 27.749)" width="3000" xlink:href="#0"/></svg>
